X: 20
T: Missa Princesse d'amourettes &mdash; Kyrie
C: Gaspar van Weerbeke
%%abc-version 2.0
%%abcx-abcm2ps-target-version 5.9.1 (29 Sep 2008)
%%abc-creator hum2abc beta
%%abcx-conversion-date 2022/03/06 13:05:57
%%abc-copyright Copyright 2014, Pavanello, Agnese
%%abc-edited-by Mair-Gruber, Roland
%%humdrum-veritas 2231355062
%%humdrum-veritas-data 2648684267
%%linebreak <none>
%%barnumbers 0
L: 1/4
M: 3/2
N: Derived from Gas0103a-Missa_Princesse_damourettes-Kyrie.krn
%%staves [1 2 3 4]
V: 1 clef=treble
V: 2 clef=treble-8
V: 3 clef=treble-8
V: 4 clef=bass
K: C
[V:1] G4G2 | 
[V:2] G4G2 | 
[V:3] z6 | 
[V:4] z6 | 
[V:1] AGAc>AB- | 
[V:2] c>Bc2d2- | 
[V:3] z6 | 
[V:4] z6 | 
[V:1] BA2GAG/F/ | 
[V:2] dcB2A2 | 
[V:3] z6 | 
[V:4] z6 | 
[V:1] E2zD2E- | 
[V:2] z2B2G3/F/ | 
[V:3] z6 | 
[V:4] z6 | 
[V:1] EF>DD2^C | 
[V:2] GA2FE2 | 
[V:3] z6 | 
[V:4] z6 | 
[V:1] D/E/F/G/AdcB | 
[V:2] zD>EF/G/AB | 
[V:3] z6 | 
[V:4] z2zD,F,G, | 
[V:1] A2F>GAB | 
[V:2] c2<d2cB | 
[V:3] z6 | 
[V:4] F,2D,>E,F,G, | 
[V:1] cB/AG/G2^F | 
[V:2] AdcBA2 | 
[V:3] z6 | 
[V:4] A,G,/F,E,/G,D,2 | 
[V:1] G4z2 | 
[V:2] G4D2 | 
[V:3] G6- | 
[V:4] G,,6 | 
[V:1] G2G>AB2 | 
[V:2] E4G2 | 
[V:3] G6 | 
[V:4] C,4G,,2 | 
[V:1] Ac2AG2 | 
[V:2] FEA2zG | 
[V:3] c6 | 
[V:4] zA,,>B,,C,/D,/E,2 | 
[V:1] F_B2AG3/F/ | 
[V:2] AGA2zd- | 
[V:3] d2>c2_B2 | 
[V:4] D,G,D,F,G,2 | 
[V:1] F2zA>GF/E/ | 
[V:2] ddd>cA2 | 
[V:3] A4z2 | 
[V:4] D,2D,>E,F,2 | 
[V:1] D2EG>FE/D/ | 
[V:2] zg>fe/d/ec- | 
[V:3] B2G3A- | 
[V:4] G,2C,4 | 
[V:1] CE2D2^C | 
[V:2] cc2A>GE | 
[V:3] AG2FE2 | 
[V:4] A,,C,2D,A,,2 | 
[V:1] D2zAc2 | 
[V:2] F2>D2EF | 
[V:3] D4zA | 
[V:4] A,/G,/F,/E,/D,C,/B,,/A,,2 | 
[V:1] B>ABA2G | 
[V:2] G2z2AB | 
[V:3] d2>d2cB | 
[V:4] G,,2D,>E,F,G, | 
[V:1] AcBA2B | 
[V:2] c>BGAzd | 
[V:3] A2zd>cB | 
[V:4] F,2G,D,F,G, | 
[V:1] c/B/A/G/FG2^F | 
[V:2] fcded2 | 
[V:3] A6 | 
[V:4] F,>E,D,C,D,2 | 
[V:1] G6 ||  
[V:2] [B6d6] ||  
[V:3] G6 ||  
[V:4] G,,6 ||  
[V:1] [M:2/2]G4 | 
[V:2] [M:2/2]G4 | 
[V:3] [M:2/2]z4 | 
[V:4] [M:2/2]z4 | 
[V:1] G>FGA- | 
[V:2] c4 | 
[V:3] z4 | 
[V:4] z4 | 
[V:1] AG/F/E2 | 
[V:2] d2c2 | 
[V:3] z4 | 
[V:4] z4 | 
[V:1] D2G2- | 
[V:2] B4 | 
[V:3] z4 | 
[V:4] z4 | 
[V:1] G2^F2 | 
[V:2] A4 | 
[V:3] z4 | 
[V:4] z4 | 
[V:1] G4 | 
[V:2] B4 | 
[V:3] z4 | 
[V:4] G,,4 | 
[V:1] z4 | 
[V:2] G>FGA- | 
[V:3] z4 | 
[V:4] C,4 | 
[V:1] z4 | 
[V:2] AG/F/E2 | 
[V:3] z4 | 
[V:4] D,2C,2 | 
[V:1] z2D2 | 
[V:2] D2G2- | 
[V:3] z4 | 
[V:4] B,,4 | 
[V:1] EF>ED/C/ | 
[V:2] G2^F2 | 
[V:3] z4 | 
[V:4] A,,4 | 
[V:1] B,G,B,D- | 
[V:2] G4 | 
[V:3] z4 | 
[V:4] z2G,2- | 
[V:1] DC/B,/A,2 | 
[V:2] D4 | 
[V:3] z4 | 
[V:4] G,2^F,2 | 
[V:1] z2G2- | 
[V:2] d2Bc | 
[V:3] z4 | 
[V:4] G,2zC, | 
[V:1] G2^F2 | 
[V:2] BGA2 | 
[V:3] z4 | 
[V:4] E,2D,2 | 
[V:1] G2EA- | 
[V:2] G2c2- | 
[V:3] z4 | 
[V:4] E,2C,F,- | 
[V:1] AGFD | 
[V:2] ccd3/c/ | 
[V:3] z4 | 
[V:4] F,E,D,G,- | 
[V:1] G2c2- | 
[V:2] B2A2 | 
[V:3] z4 | 
[V:4] G,E,F,3/G,/ | 
[V:1] ccd3/c/ | 
[V:2] z2G2 | 
[V:3] z4 | 
[V:4] A,2B,2 | 
[V:1] B2A2 | 
[V:2] d3e | 
[V:3] z4 | 
[V:4] G,2D,2- | 
[V:1] z2B2 | 
[V:2] f2ge- | 
[V:3] z4 | 
[V:4] D,2zG, | 
[V:1] G>ABA- | 
[V:2] ed/c/Bc | 
[V:3] z4 | 
[V:4] E,>F,G,E, | 
[V:1] AG/F/E2 | 
[V:2] dBcG- | 
[V:3] z4 | 
[V:4] D,2C,2 | 
[V:1] D2B,3/C/ | 
[V:2] G3E | 
[V:3] z4 | 
[V:4] z4 | 
[V:1] ED2C/B,/ | 
[V:2] CG3- | 
[V:3] z4 | 
[V:4] z4 | 
[V:1] A,2G,2 | 
[V:2] G^FG2 | 
[V:3] z4 | 
[V:4] z2G,,2 | 
[V:1] z2G3/A/ | 
[V:2] G/F/E/D/E2 | 
[V:3] z4 | 
[V:4] C,3C, | 
[V:1] BABd- | 
[V:2] Dd>cd | 
[V:3] z4 | 
[V:4] D,>C,B,,2 | 
[V:1] dcd3/c/ | 
[V:2] e2d2- | 
[V:3] z4 | 
[V:4] A,,2B,,2 | 
[V:1] B>ABc | 
[V:2] d2zc | 
[V:3] z4 | 
[V:4] G,,2G,A, | 
[V:1] Bc>BA/G/ | 
[V:2] dA>Bc | 
[V:3] z4 | 
[V:4] G,F,E,2 | 
[V:1] F>G A/_B/A | 
[V:2] d>ef3/e/ | 
[V:3] z4 | 
[V:4] D,4- | 
[V:1] _BABA- | 
[V:2] d/c/d2c | 
[V:3] z4 | 
[V:4] D,2G,A, | 
[V:1] AG2F | 
[V:2] d_BA2 | 
[V:3] z4 | 
[V:4] F,G,D,2 | 
[V:1] ED>CB,/A,/ | 
[V:2] G3F | 
[V:3] z4 | 
[V:4] G,,>A,, B,,/C,/D, | 
[V:1] G,A,B,C | 
[V:2] GFGE | 
[V:3] z4 | 
[V:4] E,D,2C, | 
[V:1] A,2zD- | 
[V:2] ^F4- | 
[V:3] z4 | 
[V:4] D,4 | 
[V:1] DC/B,/A,2 | 
[V:2] F4 | 
[V:3] z4 | 
[V:4] z2zD,- | 
[V:1] z4 | 
[V:2] ^F4 | 
[V:3] z4 | 
[V:4] D,C,/B,,/A,,2 | 
[V:1] zG2F/E/ | 
[V:2] G4 | 
[V:3] z4 | 
[V:4] G,,2zG,- | 
[V:1] D2zc- | 
[V:2] B2c2- | 
[V:3] z4 | 
[V:4] G,/F,/E,/D,/C,2 | 
[V:1] cB/A/Gc | 
[V:2] cde2 | 
[V:3] z4 | 
[V:4] F,2E,3/F,/ | 
[V:1] BA2B- | 
[V:2] dcd2 | 
[V:3] z4 | 
[V:4] G,A,D,G,- | 
[V:1] BA/G/ A/G/F/E/ | 
[V:2] BcA2 | 
[V:3] z4 | 
[V:4] G,F,/E,/F,2 | 
[V:1] !fermata!^F4 ||  
[V:2] !fermata!d4 ||  
[V:3] z4 ||  
[V:4] !fermata!D,4 ||  
[V:1] [M:3/2]G3F/E/D2 | 
[V:2] [M:3/2]G2>A2B2 | 
[V:3] [M:3/2]z6 | 
[V:4] [M:3/2]G,,6 | 
[V:1] E4G2- | 
[V:2] E2zee2- | 
[V:3] G6 | 
[V:4] C,6 | 
[V:1] G2A4 | 
[V:2] e2f2ef | 
[V:3] c6 | 
[V:4] C,2F,>G,A,2 | 
[V:1] B2>A2B2 | 
[V:2] g2gfdg | 
[V:3] d6 | 
[V:4] G,2>D,2G,2 | 
[V:1] c3B/A/G2 | 
[V:2] e4e2 | 
[V:3] c4B2 | 
[V:4] z2C,>D,E,2 | 
[V:1] FA2G/F/E2 | 
[V:2] cf2d2^c | 
[V:3] A6 | 
[V:4] F,2D,2A,,2 | 
[V:1] D2z2D3/E/ | 
[V:2] d4_B2 | 
[V:3] _B4G2 | 
[V:4] z2G,,4 | 
[V:1] F>G A/B<cB/A- | 
[V:2] Ad2<c2f- | 
[V:3] A6- | 
[V:4] D,>E,F,4 | 
[V:1] A/G/F2E/D/E2 | 
[V:2] f/e/d2c3 | 
[V:3] A4G2 | 
[V:4] D,2>F,2C,2 | 
[V:1] D2>C2C3/B,/ | 
[V:2] A2G>F E/D/C | 
[V:3] F2E4 | 
[V:4] D,2z2A,,2 | 
[V:1] D2zDE3/F/ | 
[V:2] zF2DC2 | 
[V:3] D4A2 | 
[V:4] B,,D,2B,,A,,2 | 
[V:1] G2D2z2 | 
[V:2] D2>F2GA- | 
[V:3] B2>A2GF | 
[V:4] G,,2>D,2E,D, | 
[V:1] DEF/E/D/C<DC/ | 
[V:2] AG2FGA | 
[V:3] G2zABA | 
[V:4] B,,C,A,,2G,,F, | 
[V:1] B,A,G,G2^F | 
[V:2] Bd2cd2 | 
[V:3] GFG2A2 | 
[V:4] G,D,E,2D,2 | 
[V:1] G>EFGAF | 
[V:2] ecdBAd | 
[V:3] z6 | 
[V:4] z2D,E,F,D, | 
[V:1] GEDG2^F | 
[V:2] BcdBA2 | 
[V:3] z6 | 
[V:4] G,A,B,G,D,2 | 
[V:1] G6- | 
[V:2] B/A/G/F/EDE2 | 
[V:3] G6- | 
[V:4] G,,B,,C,G,,C,2 | 
[V:1] G6 |]  
[V:2] D6 |]  
[V:3] G6 |]  
[V:4] G,,6 |]  


